X: 40819
T: Train Journey North, The
R: hornpipe
M: 4/4
K: Dmajor
d2 fA dfAd|fADF Adfd|g2 ec AceA|ceAc egfe|
d2 fA dfAd|fADF Adfd|g2 ec AceA|1 ceag fedc:|2 ceag fedf||
a2 fd A2 FD|Adaf gfef|g2 ec AceA|ceag fedf|
a2 fd A2 FD|Adaf gfef|g2 ec AceA|1 ceag fedf:|2 ceag fedc||
d3 d dfAd|d2 fA dfAd|c2 ec Acec|dAfA dAfA|
d3 d dfAd|d2 fA dfAd|cdef g2 ec|1 Aceg fedc:|2 Aeag fedf||
a2 fd A2 af|gfed cdef|g2 ec Bded|cAfg a3b|
a2 fd A2 af|gfed cdef|g2 ec AceA|1 ceag fedf:|2 ceag fedc||

